X: 2048
T: Zâvil Peşrev
C: Zeki Mehmed Ağa
O: Turkey
F: http://compmusic.upf.edu/node/140
N: zavil--pesrev--hafif----zeki_mehmet_aga
N: makam= zavil
N: form= pesrev
N: usul= hafif = 32/4
M: 32/4
L: 1/16
K: C ^9/8f   
Q: 1/4=90
%%MIDI tuningsystem comma53
f4 g4 b4 g4  | a4 b2 a2 g2 a2 g2 f2  | \
w:  1. HANE  |   | 
e8 f6 a2  | g12 d4  | z4 g2 g2 g4 a2 b2  | 
w:   |   |   | 
a4 g2 a2 g4 f4  | e3 f g2 a2 f2 g2 e2 =f2  | \
w:   |   | 
d2 =f2 e2 d2 d6 z2  | b4 c'2 d'2 c'4 b4  | 
w:   |   | 
b4 a2 b2 a4 g4  | a2 c'2 b2 a2 g3 f e2 f2  | \
w:   |   | 
g12 f4  | a2 c'2 b2 a2 a2 b2 a2 g2  | 
w:   |   | 
g2 a2 g2 f2 f2 g2 f2 e2  | z2 a2 g2 f2 z2 g2 f2 e2  | \
w:   |   | 
d2 =f2 e2 d2 d6 z2  | 
w:   | 
a4 b4 a4 a2 g2  | a3 g f2 g2 a2 b2 c'2 b2  | \
w:   |   | 
a4 g2 f2 a2 g2 f2 e2  | d2 =f2 e2 d2 d8  | 
w:   |   | 
e4 =f8 e4  | d2 e2 d2 ^c2 _1/4B2 ^A2 B4  | \
w:   |   | 
^c2 e2 d2 c2 _7/8B2 c2 B2 A2  | G3 ^F G2 A2 G4 A4  | 
w:   |   | 
A12 _7/8B4  | ^c2 e2 d2 c2 _7/8B3 A G4  | \
w:   |   | 
A2 c2 B2 A2 A2 G2 F2 G2  | A12 B4  | \
w:   |   | 
G6 A2 B4 c4  | 
w:   | 
B4 A4 G4 F4  | G6 A2 B4 c4  | d6 e2 f4 g4  | \
w:   |   |   | 
f4 g4 b4 g4  | a4 b2 a2 g2 a2 g2 f2  | 
w:  1. HANE  |   | 
e8 f6 a2  | g12 d4  | z4 g2 g2 g4 a2 b2  | \
w:   |   |   | 
a4 g2 a2 g4 f4  | e3 f g2 a2 f2 g2 e2 =f2  | 
w:   |   | 
d2 =f2 e2 d2 d6 z2  | b4 c'2 d'2 c'4 b4  | \
w:   |   | 
b4 a2 b2 a4 g4  | a2 c'2 b2 a2 g3 f e2 f2  | 
w:   |   | 
g12 f4  | a2 c'2 b2 a2 a2 b2 a2 g2  | \
w:   |   | 
g2 a2 g2 f2 f2 g2 f2 e2  | z2 a2 g2 f2 z2 g2 f2 e2  | 
w:   |   | 
d2 =f2 e2 d2 d6 z2  | a4 b4 a4 a2 g2  | \
w:   |   | 
a3 g f2 g2 a2 b2 c'2 b2  | a4 g2 f2 a2 g2 f2 e2  | 
w:   |   | 
d2 =f2 e2 d2 d8  | e4 =f8 e4  | d2 e2 d2 ^c2 _1/4B2 ^A2 B4  | \
w:   |   |   | 
^c2 e2 d2 c2 _7/8B2 c2 B2 A2  | 
w:   | 
G3 ^F G2 A2 G4 A4  | A12 _7/8B4  | ^c2 e2 d2 c2 _7/8B3 A G4  | \
w:   |   |   | 
A2 c2 B2 A2 A2 G2 F2 G2  | 
w:   | 
A12 B4  | G6 A2 B4 c4  | B4 A4 G4 F4  | \
w:   |   |   | 
G6 A2 B4 c4  | e2 d2 c2 d2 e6 z2  | d4 e8 e4  | 
w:   |   |  2. HANE  | 
d2 e2 f2 g2 f2 g2 f2 e2  | d6 a2 g2 a2 g2 f2  | \
w:   |   | 
g12 a2 b2  | a3 g f2 g2 f4 g4  | 
w:   |   | 
f8 g6 z2  | a4 _b4 a2 g2 ^f2 g2  | a12 z4  | \
w:   |   |   | 
g6 c'2 b4 c'4  | d'4 c'2 b2 b3 a g4  | 
w:   |   | 
a2 c'2 b2 a2 g3 f e2 f2  | g12 a4  | \
w:   |   | 
a2 g2 f8 g4  | g2 f2 e4 e2 g2 f2 e2  | 
w:   |   | 
e2 d2 ^c2 d2 c2 d2 e2 =f2  | d4 e8 z4  | \
w:   |   | 
a4 ^f2 a2 g4 e2 g2  | =f6 e2 e6 d2  | 
w:   |   | 
_7/8e4 d2 c2 g4 ^f2 e2  | _7/8e3 d c4 d3 c _1/4B2 c2  | \
w:   |   | 
_1/4B2 c2 d2 B2 c8  | c2 _1/4B8-_1/4B2 A2 G2  | 
w:   |   | 
^c2 e2 d2 c2 _7/8B2 c2 B2 A2  | G3 ^F G2 A2 G4 A4  | \
w:   |   | 
A12 _7/8B4  | ^c2 e2 d2 c2 _7/8B3 A G4  | 
w:   |   | 
A2 c2 B2 A2 A2 G2 ^F2 G2  | A12 B4  | \
w:   |   | 
G6 A2 B4 c4  | B4 A4 G4 F4  | G6 A2 B4 c4  | 
w:   |   |   | 
e2 d2 ^c2 d2 e6 z2  | d4 e8 e4  | d2 e2 f2 g2 f2 g2 f2 e2  | \
w:   |  2. HANE  |   | 
d6 a2 g2 a2 g2 f2  | 
w:   | 
g12 a2 b2  | a3 g f2 g2 f4 g4  | f8 g6 z2  | \
w:   |   |   | 
a4 _b4 a2 g2 ^f2 g2  | a12 z4  | g6 c'2 b4 c'4  | 
w:   |   |   | 
d'4 c'2 b2 b3 a g4  | a2 c'2 b2 a2 g3 f e2 f2  | \
w:   |   | 
g12 a4  | a2 g2 f8 g4  | g2 f2 e4 e2 g2 f2 e2  | 
w:   |   |   | 
e2 d2 ^c2 d2 c2 d2 e2 =f2  | d4 e8 z4  | \
w:   |   | 
a4 ^f2 a2 g4 e2 g2  | =f6 e2 e6 d2  | 
w:   |   | 
_7/8e4 d2 c2 g4 ^f2 e2  | _7/8e3 d c4 d3 c _1/4B2 c2  | \
w:   |   | 
_1/4B2 c2 d2 B2 c8  | c2 _1/4B8-_1/4B2 A2 G2  | 
w:   |   | 
^c2 e2 d2 c2 _7/8B2 c2 B2 A2  | G3 ^F G2 A2 G4 A4  | \
w:   |   | 
A12 _7/8B4  | ^c2 e2 d2 c2 _7/8B3 A G4  | 
w:   |   | 
A2 c2 B2 A2 A2 G2 ^F2 G2  | A12 B4  | \
w:   |   | 
G6 A2 B4 c4  | B4 A4 G4 F4  | G6 A2 B4 c4  | 
w:   |   |   | 
c2 B2 A4 G8  | |


